ix/bag-cross_bold.svg

<svg viewBox="0 0 24 24" fill="none" xmlns="http://www.w3.org/2000/svg" height="1em" width="1em">
  <path d="M19.9597 8.95844C19.2897 8.21844 18.2797 7.78844 16.8797 7.63844V6.87844C16.8797 5.50844 16.2997 4.18844 15.2797 3.26844C14.2497 2.32844 12.9097 1.88844 11.5197 2.01844C9.12975 2.24844 7.11975 4.55844 7.11975 7.05844V7.63844C5.71975 7.78844 4.70975 8.21844 4.03975 8.95844C3.06975 10.0384 3.09975 11.4784 3.20975 12.4784L3.90975 18.0484C4.11975 19.9984 4.90975 21.9984 9.20975 21.9984H14.7897C19.0897 21.9984 19.8797 19.9984 20.0897 18.0584L20.7897 12.4684C20.8997 11.4784 20.9297 10.0384 19.9597 8.95844ZM11.6597 3.40844C12.6597 3.31844 13.6097 3.62844 14.3497 4.29844C15.0797 4.95844 15.4897 5.89844 15.4897 6.87844V7.57844H8.50975V7.05844C8.50975 5.27844 9.97975 3.56844 11.6597 3.40844ZM11.9997 18.5784C9.90975 18.5784 8.20975 16.8784 8.20975 14.7884C8.20975 12.6984 9.90975 10.9984 11.9997 10.9984C14.0897 10.9984 15.7897 12.6984 15.7897 14.7884C15.7897 16.8784 14.0897 18.5784 11.9997 18.5784Z" fill="#292D32"/>
  <path d="M13.5991 15.3102L13.0691 14.7802L13.5691 14.2802C13.8591 13.9902 13.8591 13.5102 13.5691 13.2202C13.2791 12.9302 12.7991 12.9302 12.5091 13.2202L12.0091 13.7202L11.4791 13.1902C11.1891 12.9002 10.7091 12.9002 10.4191 13.1902C10.1291 13.4802 10.1291 13.9602 10.4191 14.2502L10.9491 14.7802L10.3991 15.3302C10.1091 15.6202 10.1091 16.1002 10.3991 16.3902C10.5491 16.5402 10.7391 16.6102 10.9291 16.6102C11.1191 16.6102 11.3091 16.5402 11.4591 16.3902L12.0091 15.8402L12.5391 16.3702C12.6891 16.5202 12.8791 16.5902 13.0691 16.5902C13.2591 16.5902 13.4491 16.5202 13.5991 16.3702C13.8891 16.0802 13.8891 15.6102 13.5991 15.3102Z" fill="#292D32"/>
</svg>

<svg viewBox="0 0 24 24" fill="none" xmlns="http://www.w3.org/2000/svg" height="1em" width="1em">
  <path d="M19.96 8.958c-.67-.74-1.68-1.17-3.08-1.32v-.76c0-1.37-.58-2.69-1.6-3.61a4.847 4.847 0 0 0-3.76-1.25c-2.39.23-4.4 2.54-4.4 5.04v.58c-1.4.15-2.41.58-3.08 1.32-.97 1.08-.94 2.52-.83 3.52l.7 5.57c.21 1.95 1 3.95 5.3 3.95h5.58c4.3 0 5.09-2 5.3-3.94l.7-5.59c.11-.99.14-2.43-.83-3.51Zm-8.3-5.55a3.482 3.482 0 0 1 3.83 3.47v.7H8.51v-.52c0-1.78 1.47-3.49 3.15-3.65Zm.34 15.17c-2.09 0-3.79-1.7-3.79-3.79s1.7-3.79 3.79-3.79 3.79 1.7 3.79 3.79-1.7 3.79-3.79 3.79Z" fill="#292D32"/>
  <path d="m13.6 15.31-.53-.53.5-.5c.29-.29.29-.77 0-1.06a.754.754 0 0 0-1.06 0l-.5.5-.53-.53a.754.754 0 0 0-1.06 0c-.29.29-.29.77 0 1.06l.53.53-.55.55c-.29.29-.29.77 0 1.06.15.15.34.22.53.22s.38-.07.53-.22l.55-.55.53.53c.15.15.34.22.53.22s.38-.07.53-.22c.29-.29.29-.76 0-1.06Z" fill="#292D32"/>
</svg>
